components/Company/logos/logo-harmonic.svg

<svg height="140" viewBox="0 0 400 140" width="400" xmlns="http://www.w3.org/2000/svg" xmlns:xlink="http://www.w3.org/1999/xlink"><mask id="a" fill="#fff"/><g fill="none" fill-rule="nonzero" transform="translate(57 27)"><path d="m28.4872435 75.0945086.010956-42.8134052c0-8.2928953-4.8635978-13.6005338-13.0318308-13.6005338-4.0514764 0-7.5104102 1.4184607-10.16543972 4.4825209v-22.89052356h-5.30092898v45.80422456h5.30092898v-12.8940849c0-6.3575774 3.60775419-9.7183091 9.06298162-9.7183091 5.4488364 0 8.8347295 3.2865639 8.8347295 9.7183091l.0091301 36.12439c0 4.7193945 3.3288299 5.787412 5.0188092 5.787412z" fill="#002039" mask="url(#a)" transform="translate(0 11.184358)"/><path d="m187.187428 63.018747c-2.571886 2.4935843-6.124878 4.0873983-10.667418 4.0873983-4.532223 0-8.028469-1.593814-10.603169-4.0873983-3.782323-3.7103085-4.542539-8.7399785-4.542539-14.2900684 0-5.5347169.760216-10.5643871 4.542539-14.2927815 2.5747-2.4727854 6.070946-4.0783552 10.603169-4.0783552 4.54254 0 8.095532 1.6055698 10.667418 4.0783552 3.785137 3.7283944 4.544416 8.7580646 4.544416 14.2927815 0 5.5500899-.759279 10.5797599-4.544416 14.2900684m-3.852201-25.3748753c-1.742261-1.6679659-4.165012-2.620185-6.815217-2.620185-2.642234 0-4.933201.9522191-6.667957 2.620185-2.729933 2.6292279-3.02586 7.0783428-3.02586 11.0848069 0 4.0127941.295927 8.4637175 3.02586 11.0843546 1.734756 1.677461 4.025723 2.6314888 6.667957 2.6314888 2.650205 0 5.072956-.9540278 6.815217-2.6314888 2.714925-2.6206371 2.944725-7.0715605 2.944725-11.0843546 0-4.0064641-.2298-8.455579-2.944725-11.0848069" fill="#002039"/><path d="m212.502562 35.0655204c5.511456 0 9.021978 3.235224 9.021978 9.6381477v22.4024772h5.358142v-23.2848524c0-4.1883171-1.185875-7.5736451-3.797756-10.0784228-2.23506-2.2105008-5.438031-3.3853282-9.385406-3.3853282h-2.392068c-3.94876 0-7.15127 1.1748274-9.38633 3.3853282-2.611419 2.5047777-3.798217 5.8901057-3.798217 10.0784228v23.2848524h5.359527v-22.4024772c0-6.4029237 3.509137-9.6381477 9.02013-9.6381477" fill="#002039"/><g transform="translate(100.659218)"><path d="m48.4599563 33.3866861c-2.2329864-2.2269128-5.4329849-3.4104629-9.37762-3.4104629h-2.389849c-3.9441736 0-7.1441723 1.1835501-9.3766973 3.4104629-.4110724.3975809-.7833907.819982-1.1243363 1.2616874-.3418684-.4417054-.7132639-.8641065-1.1247977-1.2616874-2.232525-2.2269128-5.4325237-3.4104629-9.3766973-3.4104629h-2.389849c-3.94509637 0-7.14417228 1.1835501-9.37762002 3.4104629-2.60853407 2.523375-3.79423137 5.9338379-3.79423137 10.1532517v23.4577345h5.35363094v-22.5688079c0-6.4504633 3.50680358-9.7097076 9.01268365-9.7097076 5.5068027 0 9.0126836 3.2592443 9.0126836 9.7097076v22.5688079h5.3674717v-22.5688079c0-6.4504633 3.5068036-9.7097076 9.0136064-9.7097076 5.5054187 0 9.0117608 3.2592443 9.0117608 9.7097076v22.5688079h5.3587059v-23.4577345c0-4.2194138-1.1884655-7.6298767-3.798845-10.1532517" fill="#002039"/><path d="m128.489911 11.7215131c0-6.31671062 5.134023-11.43470327 11.473582-11.43470327 6.343711 0 11.480503 5.11799265 11.480503 11.43470327 0 6.3153317-5.136792 11.4324052-11.480503 11.4324052-6.339559 0-11.473582-5.1170735-11.473582-11.4324052" fill="#00a8c8"/></g><path d="m247.653631 11.1856786-11.184357 4.791975v-9.58659215z" fill="#fffffe"/><g fill="#002039"><path d="m239.664804 67.1061453h4.793297v-36.7486034h-4.793297z"/><path d="m271.719852 62.0366863c-.335457.0782213-.5706.1225317-.702667.1464953-.739938.1573468-1.515309.2613404-2.395598.2613404-3.561646 0-6.527384-1.3858271-8.455459-4.0873983-1.713638-2.3353331-2.377192-5.1051784-2.377192-9.6284451 0-4.5169367.663554-7.286782 2.377192-9.6198545 1.928075-2.7015712 4.893813-4.0851374 8.455459-4.0851374.928605 0 1.759196.0791255 2.534567.2423502 1.109909.1908056 3.269905.6859051 5.337869 1.8741444.667693.3834196 1.120492.7315719 1.43432 1.0431003l.08283-.0764125v-4.8479075c-2.77477-2.1318675-5.545401-2.9014197-9.389586-2.9014197-9.203219 0-16.17466 6.1220543-16.17466 18.3711367 0 12.2572208 6.971441 18.3774667 16.17466 18.3774667 3.844185 0 6.614816-.7704566 9.389586-2.9050369v-4.8985478l-.062121-.0583269c-.240205.1926142-.525965.3960798-.872926.6135619-2.036213 1.2786685-4.207712 1.9103161-5.356274 2.1788907"/><path d="m87.7359054 30.3629399c-3.923886 0-7.1065933 1.1633602-9.3278341 3.3522843-2.595272 2.4803291-3.7747325 5.8326134-3.7747325 9.9800488v23.032272h5.3259294v-22.1580577c0-4.132978 1.489241-6.9236871 4.0372428-8.3721269 3.6370521-1.5270513 8.1139536-1.3025116 11.5353069 1.1601977l.3341039-4.999512c-.7480624-.5209144-1.4869463-.9112612-2.4699829-1.2582361-1.6994328-.5986223-3.965649-.7770794-5.6600335-.7368701zm-27.9853382 23.6327012c0 2.9840753-.5934018 5.0257159-1.850881 6.189076-2.2955879 2.1889243-5.029917 2.4080427-8.146079 2.4080427-6.3493523 0-7.9808628-3.760703-7.9808628-6.1068502 0-2.3456955-.1799021-5.8158972 3.6384291-7.7459455 3.5177292-1.4769028 9.7968646-1.622831 14.3393937 2.4410232zm-9.2521101-23.6087564c-5.9248383 0-9.9235305 2.3199435-10.9180406 3.8542236l-.0321253 4.9123163c2.148729-2.9818162 6.2080005-4.2508953 10.8767364-4.2508953 6.6568383 0 9.3255396 2.6271608 9.3255396 7.8701878v4.0430719c-1.5594578-1.101465-4.612287-3.0861799-9.6963582-3.0861799-3.923886 0-7.7298259.8656303-10.3214264 3.417794-3.3800491 3.3278877-2.9683853 9.3660657-2.9683853 9.3660657s.0316666 10.5926765 12.6358307 10.5926765c4.8821403 0 7.3842485-.7806938 10.3503392-3.6988077l.1661342 3.3346646h5.3296009l-.1665931-24.4075217c0-7.7974496-4.8174305-11.9475958-14.5812521-11.9475958z"/><path d="m282.225385 73.3461394h.419357c.439496 0 .85925-.1211726.85925-.52455 0-.3224629-.200202-.5444799-.799624-.5444799-.239294 0-.379474.0207268-.478983.0406565zm0 1.8949175h-.599026v-3.346598c.339592-.0605863.678789-.1008444 1.138425-.1008444.559144 0 .818577.1008444 1.038918.2618766.199018.1411023.338803.4033774.338803.7059105 0 .4233071-.29971.6652539-.659048.786028v.0402581c.300107.1207739.459636.3834477.559539.8063562.099509.5042218.159531.7262388.239294.847013h-.618769c-.100299-.1207742-.180064-.4233072-.259827-.8872709-.079766-.3627209-.319456-.5241516-.778695-.5241516h-.399614zm.559143-4.3749714c-1.417998 0-2.496798 1.1690772-2.496798 2.6008281 0 1.4720087 1.0788 2.641086 2.537076 2.641086 1.417997.0199297 2.476264-1.1690773 2.476264-2.6207577 0-1.4520792-1.058267-2.6211564-2.496403-2.6211564zm.040278-.5644095c1.777335 0 3.175194 1.3906956 3.175194 3.1652376 0 1.8144014-1.397859 3.2258238-3.195333 3.2258238-1.778126 0-3.195728-1.4114224-3.195728-3.2258238 0-1.774542 1.417602-3.1652376 3.195728-3.1652376z"/></g></g></svg>

<?xml version="1.0" encoding="UTF-8"?>
<svg width="400px" height="140px" viewBox="0 0 400 140" version="1.1" xmlns="http://www.w3.org/2000/svg" xmlns:xlink="http://www.w3.org/1999/xlink">
    <title>Artboard</title>
    <defs>
        <polygon id="path-1" points="0.0273902633 0.272566936 28.4981995 0.272566936 28.4981995 75.0671591 0.0273902633 75.0671591"></polygon>
    </defs>
    <g id="Artboard" stroke="none" stroke-width="1" fill="none" fill-rule="evenodd">
        <g id="harmonic-logo" transform="translate(57.000000, 27.000000)">
            <g id="Fill-1-Clipped" transform="translate(0.000000, 11.184358)">
                <mask id="mask-2" fill="white">
                    <use xlink:href="#path-1"></use>
                </mask>
                <g id="path-1"></g>
                <path d="M28.4872435,75.0945086 L28.4981995,32.2811034 C28.4981995,23.9882081 23.6346017,18.6805696 15.4663687,18.6805696 C11.4148923,18.6805696 7.9559585,20.0990303 5.30092898,23.1630905 L5.30092898,0.272566936 L0,0.272566936 L0,46.0767915 L5.30092898,46.0767915 L5.30092898,33.1827066 C5.30092898,26.8251292 8.90868317,23.4643975 14.3639106,23.4643975 C19.812747,23.4643975 23.1986401,26.7509614 23.1986401,33.1827066 L23.2077702,69.3070966 C23.2077702,74.0264911 26.5366001,75.0945086 28.2265794,75.0945086 L28.4872435,75.0945086" id="Fill-1" fill="#002039" fill-rule="nonzero" mask="url(#mask-2)"></path>
            </g>
            <path d="M187.187428,63.018747 C184.615542,65.5123313 181.06255,67.1061453 176.52001,67.1061453 C171.987787,67.1061453 168.491541,65.5123313 165.916841,63.018747 C162.134518,59.3084385 161.374302,54.2787685 161.374302,48.7286786 C161.374302,43.1939617 162.134518,38.1642915 165.916841,34.4358971 C168.491541,31.9631117 171.987787,30.3575419 176.52001,30.3575419 C181.06255,30.3575419 184.615542,31.9631117 187.187428,34.4358971 C190.972565,38.1642915 191.731844,43.1939617 191.731844,48.7286786 C191.731844,54.2787685 190.972565,59.3084385 187.187428,63.018747 M183.335227,37.6438717 C181.592966,35.9759058 179.170215,35.0236867 176.52001,35.0236867 C173.877776,35.0236867 171.586809,35.9759058 169.852053,37.6438717 C167.12212,40.2730996 166.826193,44.7222145 166.826193,48.7286786 C166.826193,52.7414727 167.12212,57.1923961 169.852053,59.8130332 C171.586809,61.4904942 173.877776,62.444522 176.52001,62.444522 C179.170215,62.444522 181.592966,61.4904942 183.335227,59.8130332 C186.050152,57.1923961 186.279952,52.7414727 186.279952,48.7286786 C186.279952,44.7222145 186.050152,40.2730996 183.335227,37.6438717" id="Fill-4" fill="#002039" fill-rule="nonzero"></path>
            <path d="M212.502562,35.0655204 C218.014018,35.0655204 221.52454,38.3007444 221.52454,44.7036681 L221.52454,67.1061453 L226.882682,67.1061453 L226.882682,43.8212929 C226.882682,39.6329758 225.696807,36.2476478 223.084926,33.7428701 C220.849866,31.5323693 217.646895,30.3575419 213.69952,30.3575419 L211.307452,30.3575419 C207.358692,30.3575419 204.156182,31.5323693 201.921122,33.7428701 C199.309703,36.2476478 198.122905,39.6329758 198.122905,43.8212929 L198.122905,67.1061453 L203.482432,67.1061453 L203.482432,44.7036681 C203.482432,38.3007444 206.991569,35.0655204 212.502562,35.0655204" id="Fill-5" fill="#002039" fill-rule="nonzero"></path>
            <g id="Group-9" transform="translate(100.659218, 0.000000)" fill-rule="nonzero">
                <path d="M48.4599563,33.3866861 C46.2269699,31.1597733 43.0269714,29.9762232 39.0823363,29.9762232 L36.6924873,29.9762232 C32.7483137,29.9762232 29.548315,31.1597733 27.31579,33.3866861 C26.9047176,33.784267 26.5323993,34.2066681 26.1914537,34.6483735 C25.8495853,34.2066681 25.4781898,33.784267 25.066656,33.3866861 C22.834131,31.1597733 19.6341323,29.9762232 15.6899587,29.9762232 L13.3001097,29.9762232 C9.35501333,29.9762232 6.15593742,31.1597733 3.92248968,33.3866861 C1.31395561,35.9100611 0.128258308,39.320524 0.128258308,43.5399378 L0.128258308,66.9976723 L5.48188925,66.9976723 L5.48188925,44.4288644 C5.48188925,37.9784011 8.98869283,34.7191568 14.4945729,34.7191568 C20.0013756,34.7191568 23.5072565,37.9784011 23.5072565,44.4288644 L23.5072565,66.9976723 L28.8747282,66.9976723 L28.8747282,44.4288644 C28.8747282,37.9784011 32.3815318,34.7191568 37.8883346,34.7191568 C43.3937533,34.7191568 46.9000954,37.9784011 46.9000954,44.4288644 L46.9000954,66.9976723 L52.2588013,66.9976723 L52.2588013,43.5399378 C52.2588013,39.320524 51.0703358,35.9100611 48.4599563,33.3866861" id="Fill-6" fill="#002039"></path>
                <path d="M128.489911,11.7215131 C128.489911,5.40480248 133.623934,0.286809826 139.963493,0.286809826 C146.307204,0.286809826 151.443996,5.40480248 151.443996,11.7215131 C151.443996,18.0368448 146.307204,23.1539183 139.963493,23.1539183 C133.623934,23.1539183 128.489911,18.0368448 128.489911,11.7215131" id="Fill-8" fill="#00A8C8"></path>
            </g>
            <polyline id="Fill-10" fill="#FFFFFE" fill-rule="nonzero" points="247.653631 11.1856786 236.469274 15.9776536 236.469274 6.39106145 247.653631 11.1856786"></polyline>
            <polygon id="Fill-11" fill="#002039" fill-rule="nonzero" points="239.664804 67.1061453 244.458101 67.1061453 244.458101 30.3575419 239.664804 30.3575419"></polygon>
            <path d="M271.719852,62.0366863 C271.384395,62.1149076 271.149252,62.159218 271.017185,62.1831816 C270.277247,62.3405284 269.501876,62.444522 268.621587,62.444522 C265.059941,62.444522 262.094203,61.0586949 260.166128,58.3571237 C258.45249,56.0217906 257.788936,53.2519453 257.788936,48.7286786 C257.788936,44.2117419 258.45249,41.4418966 260.166128,39.1088241 C262.094203,36.4072529 265.059941,35.0236867 268.621587,35.0236867 C269.550192,35.0236867 270.380783,35.1028122 271.156154,35.2660369 C272.266063,35.4568425 274.426059,35.951942 276.494023,37.1401813 C277.161716,37.5236009 277.614515,37.8717532 277.928343,38.1832816 L278.011173,38.1068691 L278.011173,33.2589616 C275.236403,31.1270941 272.465772,30.3575419 268.621587,30.3575419 C259.418368,30.3575419 252.446927,36.4795962 252.446927,48.7286786 C252.446927,60.9858994 259.418368,67.1061453 268.621587,67.1061453 C272.465772,67.1061453 275.236403,66.3356887 278.011173,64.2011084 L278.011173,59.3025606 L277.949052,59.2442337 C277.708847,59.4368479 277.423087,59.6403135 277.076126,59.8577956 C275.039913,61.1364641 272.868414,61.7681117 271.719852,62.0366863" id="Fill-12" fill="#002039" fill-rule="nonzero"></path>
            <path d="M87.7359054,30.3629399 C83.8120194,30.3629399 80.6293121,31.5263001 78.4080713,33.7152242 C75.8127993,36.1955533 74.6333388,39.5478376 74.6333388,43.695273 L74.6333388,66.727545 L79.9592682,66.727545 L79.9592682,44.5694873 C79.9592682,40.4365093 81.4485092,37.6458002 83.996511,36.1973604 C87.6335631,34.6703091 92.1104646,34.8948488 95.5318179,37.3575581 L95.8659218,32.3580461 C95.1178594,31.8371317 94.3789755,31.4467849 93.3959389,31.09981 C91.6965061,30.5011877 89.4302899,30.3227306 87.7359054,30.3629399 Z M59.7505672,53.9956411 C59.7505672,56.9797164 59.1571654,59.021357 57.8996862,60.1847171 C55.6040983,62.3736414 52.8697692,62.5927598 49.7536072,62.5927598 C43.4042549,62.5927598 41.7727444,58.8320568 41.7727444,56.4859096 C41.7727444,54.1402141 41.5928423,50.6700124 45.4111735,48.7399641 C48.9289027,47.2630613 55.2080381,47.1171331 59.7505672,51.1809873 L59.7505672,53.9956411 Z M50.4984571,30.3868847 C44.5736188,30.3868847 40.5749266,32.7068282 39.5804165,34.2411083 L39.5482912,39.1534246 C41.6970202,36.1716084 45.7562917,34.9025293 50.4250276,34.9025293 C57.0818659,34.9025293 59.7505672,37.5296901 59.7505672,42.7727171 L59.7505672,46.815789 C58.1911094,45.714324 55.1382802,43.7296091 50.054209,43.7296091 C46.130323,43.7296091 42.3243831,44.5952394 39.7327826,47.1474031 C36.3527335,50.4752908 36.7643973,56.5134688 36.7643973,56.5134688 C36.7643973,56.5134688 36.7960639,67.1061453 49.400228,67.1061453 C54.2823683,67.1061453 56.7844765,66.3254515 59.7505672,63.4073376 L59.9167014,66.7420022 L65.2463023,66.7420022 L65.0797092,42.3344805 C65.0797092,34.5370309 60.2622787,30.3868847 50.4984571,30.3868847 L50.4984571,30.3868847 Z" id="Fill-13" fill="#002039" fill-rule="nonzero"></path>
            <path d="M282.225385,73.3461394 L282.644742,73.3461394 C283.084238,73.3461394 283.503992,73.2249668 283.503992,72.8215894 C283.503992,72.4991265 283.30379,72.2771095 282.704368,72.2771095 C282.465074,72.2771095 282.324894,72.2978363 282.225385,72.317766 L282.225385,73.3461394 Z M282.225385,75.2410569 L281.626359,75.2410569 L281.626359,71.8944589 C281.965951,71.8338726 282.305148,71.7936145 282.764784,71.7936145 C283.323928,71.7936145 283.583361,71.8944589 283.803702,72.0554911 C284.00272,72.1965934 284.142505,72.4588685 284.142505,72.7614016 C284.142505,73.1847087 283.842795,73.4266555 283.483457,73.5474296 L283.483457,73.5876877 C283.783564,73.7084616 283.943093,73.9711354 284.042996,74.3940439 C284.142505,74.8982657 284.202527,75.1202827 284.28229,75.2410569 L283.663521,75.2410569 C283.563222,75.1202827 283.483457,74.8177497 283.403694,74.353786 C283.323928,73.9910651 283.084238,73.8296344 282.624999,73.8296344 L282.225385,73.8296344 L282.225385,75.2410569 Z M282.784528,70.8660855 C281.36653,70.8660855 280.28773,72.0351627 280.28773,73.4669136 C280.28773,74.9389223 281.36653,76.1079996 282.824806,76.1079996 C284.242803,76.1279293 285.30107,74.9389223 285.30107,73.4872419 C285.30107,72.0351627 284.242803,70.8660855 282.804667,70.8660855 L282.784528,70.8660855 Z M282.824806,70.301676 C284.602141,70.301676 286,71.6923716 286,73.4669136 C286,75.281315 284.602141,76.6927374 282.804667,76.6927374 C281.026541,76.6927374 279.608939,75.281315 279.608939,73.4669136 C279.608939,71.6923716 281.026541,70.301676 282.804667,70.301676 L282.824806,70.301676 L282.824806,70.301676 Z" id="Fill-14" fill="#002039" fill-rule="nonzero"></path>
        </g>
    </g>
</svg>
